src/assets/outline/WalletSearch.svg

<svg width="24" height="24" viewBox="0 0 24 24"  xmlns="http://www.w3.org/2000/svg">
<path d="M17 22.75H12C11.59 22.75 11.25 22.41 11.25 22C11.25 21.59 11.59 21.25 12 21.25H17C19.58 21.25 21.25 19.58 21.25 17V12C21.25 9.71 19.83 8 17.71 7.75H17H7C6.72 7.75 6.62 7.75 6.44 7.81C6.39 7.83 6.34 7.84003 6.29 7.84003C4.08 8.10003 2.75 9.65 2.75 12V13C2.75 13.41 2.41 13.75 2 13.75C1.59 13.75 1.25 13.41 1.25 13V12C1.25 8.94 3.13 6.72999 6.04 6.35999C6.42 6.24999 6.7 6.25 7 6.25H17.8C20.8 6.6 22.75 8.91 22.75 12V17C22.75 20.44 20.44 22.75 17 22.75Z" />
<path d="M6.19983 7.84996C5.99983 7.84996 5.80984 7.76999 5.66984 7.62999C5.46984 7.42999 5.39984 7.12997 5.48984 6.85997C5.64984 6.38997 5.93983 6.10001 6.26983 5.77001L9.45984 2.47997C11.1098 0.829969 13.8898 0.829959 15.5298 2.46996L17.3298 4.27001C17.9898 4.93001 18.4098 5.83996 18.5398 6.90996C18.5698 7.11996 18.4998 7.33999 18.3598 7.49999C18.2198 7.65999 18.0098 7.74999 17.7998 7.74999H6.99984C6.71984 7.74999 6.61984 7.74999 6.43984 7.80999C6.35984 7.83999 6.27983 7.84996 6.19983 7.84996ZM7.88984 6.24999H16.8498C16.7298 5.92999 16.5398 5.61001 16.2698 5.33001L14.4698 3.53002C13.3998 2.46002 11.5998 2.46002 10.5298 3.53002L7.88984 6.24999Z" />
<path d="M22 17.25H19C17.48 17.25 16.25 16.02 16.25 14.5C16.25 12.98 17.48 11.75 19 11.75H22C22.41 11.75 22.75 12.09 22.75 12.5C22.75 12.91 22.41 13.25 22 13.25H19C18.31 13.25 17.75 13.81 17.75 14.5C17.75 15.19 18.31 15.75 19 15.75H22C22.41 15.75 22.75 16.09 22.75 16.5C22.75 16.91 22.41 17.25 22 17.25Z" />
<path d="M5.8001 22.15C3.6201 22.15 1.8501 20.38 1.8501 18.2C1.8501 16.02 3.6201 14.25 5.8001 14.25C7.9801 14.25 9.7501 16.02 9.7501 18.2C9.7501 20.38 7.9801 22.15 5.8001 22.15ZM5.8001 15.75C4.4501 15.75 3.3501 16.85 3.3501 18.2C3.3501 19.55 4.4501 20.65 5.8001 20.65C7.1501 20.65 8.2501 19.55 8.2501 18.2C8.2501 16.85 7.1501 15.75 5.8001 15.75Z" />
<path d="M1.99994 22.75C1.80994 22.75 1.61994 22.68 1.46994 22.53C1.17994 22.24 1.17994 21.7599 1.46994 21.4699L2.46994 20.4699C2.75994 20.1799 3.23994 20.1799 3.52994 20.4699C3.81994 20.7599 3.81994 21.24 3.52994 21.53L2.52994 22.53C2.37994 22.68 2.18994 22.75 1.99994 22.75Z" />
</svg>

<?xml version="1.0" encoding="UTF-8"?>
<svg width="24" height="24" viewBox="0 0 24 24" xmlns="http://www.w3.org/2000/svg">
 <path d="m17 22.75h-5c-0.41 0-0.75-0.34-0.75-0.75s0.34-0.75 0.75-0.75h5c2.58 0 4.25-1.67 4.25-4.25v-5c0-2.29-1.42-4-3.54-4.25h-10.71c-0.28 0-0.38 0-0.56 0.06-0.05 0.02-0.1 0.03003-0.15 0.03003-2.21 0.26-3.54 1.81-3.54 4.16v1c0 0.41-0.34 0.75-0.75 0.75s-0.75-0.34-0.75-0.75v-1c0-3.06 1.88-5.27 4.79-5.64 0.38-0.11 0.66-0.10999 0.96-0.10999h10.8c3 0.35 4.95 2.66 4.95 5.75v5c0 3.44-2.31 5.75-5.75 5.75z"/>
 <path d="m6.1998 7.85c-0.2 0-0.38999-0.07997-0.52999-0.21997-0.2-0.2-0.27-0.50002-0.18-0.77002 0.16-0.47 0.44999-0.75996 0.77999-1.09l3.19-3.29c1.65-1.65 4.43-1.65 6.07-0.01001l1.8 1.8c0.66 0.66 1.08 1.57 1.21 2.64 0.03 0.21-0.04 0.43003-0.18 0.59003s-0.35 0.25-0.56 0.25h-10.8c-0.28 0-0.38 0-0.56 0.06-0.08 0.03-0.16001 0.03997-0.24001 0.03997zm1.69-1.6h8.96c-0.12-0.32-0.31-0.63998-0.58-0.91998l-1.8-1.8c-1.07-1.07-2.87-1.07-3.94 0l-2.64 2.72z"/>
 <path d="m22 17.25h-3c-1.52 0-2.75-1.23-2.75-2.75s1.23-2.75 2.75-2.75h3c0.41 0 0.75 0.34 0.75 0.75s-0.34 0.75-0.75 0.75h-3c-0.69 0-1.25 0.56-1.25 1.25s0.56 1.25 1.25 1.25h3c0.41 0 0.75 0.34 0.75 0.75s-0.34 0.75-0.75 0.75z"/>
 <path d="m5.8001 22.15c-2.18 0-3.95-1.77-3.95-3.95s1.77-3.95 3.95-3.95 3.95 1.77 3.95 3.95-1.77 3.95-3.95 3.95zm0-6.4c-1.35 0-2.45 1.1-2.45 2.45s1.1 2.45 2.45 2.45 2.45-1.1 2.45-2.45-1.1-2.45-2.45-2.45z"/>
 <path d="m1.9999 22.75c-0.19 0-0.38-0.07-0.53-0.22-0.29-0.29-0.29-0.7701 0-1.0601l1-1c0.29-0.29 0.77-0.29 1.06 0s0.29 0.7701 0 1.0601l-1 1c-0.15 0.15-0.34 0.22-0.53 0.22z"/>
</svg>
